X: 1
T: Kiss Under the Stairs
T: 8x32J 3C (MMM II)
P: The Emslie Twins
C: By Nan Main, The Ashley Album
C: arr. T. Traub 9-11-2000
R: Jig
M: 6/8
L: 1/8
K: A
|: c|"A"e2 c A2 e|"E"d2 B E2 d|"A"c2 A "F#m"AGA|"B"c3 "E"B2 E|"A"e2 c "D"f2 d|"E"geg "D"agf|"A"edc "E"BAG|"E"B3 "A"A2 :|
|: e |"A"a3 "E"gfe|"D"f3 "A"edc|"D"ded "A"cBA|"E"GAB EGB|"A"ecB "F#m"A2 c|"Bm"dBA "E"G2 B|"A"A2 a edc|"E"B3 "A"A2 :|
